X:112
T:I loathe that I did love
M:C
L:1/8
K:C
%%score 1 2
V:1 clef-treble
V:2 clef-bass octave=-1
V:1
"^Slow."A2|[CEA]3A[E^Gc]2[DB]2|[CA]6[B,D=G]2|[CFAc]3[EGc][DAd]2[DGB]2|"^First tune"[FAc]6[DFA]2|
w:I loathe that I did love! In youth that I thought sweet, (As
V:2
z2|A4E4|F6G2|C4F2G2|C6D2|
V:1
[EAc]3c[DFB]2[DA]2|[CEc]3c[DFB]2A2|A3^GG2A2&[B,E]8|[CEA]6||
w:time re-quires for my be-hove,) Me-thinks it is not meet
V:2
A,4D2F2|A4D4|E8|A,6||
V:1
"^Slow."G2|G3GG2(FE)&E6x2|G6G2&E8|G2G2c2c2&D4C4|"^Second tune"[DB]6G2|
w:I loathe that I did* love! In youth that I thought sweet, (As
V:2
z2|[CG]8|[CG]8|[B,G]4[A,^F]4|[G,G]8|
V:1
c2B2A2G2&C8|[DG]2D2E2(^FG)|[C^FA]2G4^F2&x2D2[A,D]4|[B,DG]6(GA)|
w:time re-quires for my be-hove, for* my* be-hove), Me*
V:2
[EG]8|G8&B,4C4|A,2(B,C)D4|G,8|
V:1
B2c2d2[B,G]2&[DG]6x2|[CGc]2[CFc]2[DGB]2[EGe]2|[FBd]2[Gc]2c2B2&x4[DG]4|[EGc]6||
w:thinks it is not meet, Me-thinks, me-thinks, it is not meet.
V:2
=F8|E2A2G2C2|D2EFG4|C6||

